build/img/icon/icon-cards.svg

<svg width="34" height="30" viewBox="0 0 34 30" fill="none" xmlns="http://www.w3.org/2000/svg">
<path d="M32.7022 4.39716L11.8788 0.0350432C10.9978 -0.149457 10.1246 0.413172 9.93822 1.28524L9.54261 3.80181L33.5692 8.83467L33.9649 6.31811C34.1512 5.44636 33.5832 4.58172 32.7022 4.39716Z" fill="#565EF5"/>
<path d="M23.9451 9.36838C23.7019 8.50137 22.7865 7.98889 21.9109 8.22926L17.9579 9.31553L8.63885 7.3633L7.61395 12.1567L1.21035 13.916C0.334793 14.1565 -0.182933 15.0625 0.0599021 15.9293L3.6687 28.8018C3.91193 29.6685 4.82732 30.1813 5.70288 29.9406L26.4035 24.2542C27.279 24.0134 27.7967 23.1077 27.5539 22.2406L26.9345 20.0308L29.2561 20.5167C30.1371 20.7015 31.0103 20.1389 31.1967 19.2668L32.6656 12.3962L24.3029 10.6445L23.9451 9.36838ZM26.3357 15.9107L26.8477 13.5157C26.9246 13.1571 27.2838 12.9258 27.646 13.0015L30.0656 13.5086C30.4282 13.5847 30.6619 13.9399 30.5854 14.2988L30.0734 16.6939C29.9965 17.0525 29.6374 17.2841 29.2751 17.2081L26.8555 16.7013C26.4926 16.6249 26.2589 16.2693 26.3357 15.9107ZM1.57058 15.2006L22.2704 9.51455C22.297 9.50745 22.3235 9.5041 22.3494 9.5041C22.466 9.5041 22.6055 9.57988 22.6463 9.72501L23.3522 12.2422L2.0638 18.0899L1.35797 15.573C1.31374 15.4151 1.41108 15.2444 1.57058 15.2006ZM26.2558 22.5968C26.283 22.6945 26.2545 22.7753 26.2255 22.8258C26.197 22.8763 26.1418 22.9424 26.0432 22.9692L5.34299 28.6556C5.31682 28.6627 5.28994 28.6664 5.26405 28.6664C5.14738 28.6664 5.00788 28.5903 4.9671 28.4452L2.8622 20.9368L24.1506 15.0888L26.2558 22.5968Z" fill="#565EF5"/>
<path d="M8.68804 23.1106C8.58871 22.7571 8.21587 22.5483 7.8587 22.6463L5.44118 23.3106C5.08435 23.4086 4.87313 23.778 4.97246 24.1316L5.64324 26.5242C5.74258 26.8778 6.11541 27.0865 6.47258 26.9882L8.8901 26.3242C9.24727 26.2262 9.45816 25.8568 9.35915 25.5033L8.68804 23.1106Z" fill="#565EF5"/>
</svg>

<svg width="34" height="30" fill="none" xmlns="http://www.w3.org/2000/svg"><path d="M32.702 4.397L11.88.035a1.642 1.642 0 00-1.94 1.25l-.396 2.517L33.57 8.835l.396-2.517a1.626 1.626 0 00-1.263-1.92zm-8.757 4.971a1.66 1.66 0 00-2.034-1.139l-3.953 1.087-9.32-1.953-1.024 4.794-6.404 1.759a1.639 1.639 0 00-1.15 2.013l3.609 12.873a1.66 1.66 0 002.034 1.139l20.7-5.687a1.639 1.639 0 001.15-2.013l-.619-2.21 2.322.486a1.641 1.641 0 001.94-1.25l1.47-6.87-8.363-1.752-.358-1.277zm2.39 6.543l.513-2.395a.676.676 0 01.798-.514l2.42.507a.669.669 0 01.52.79l-.513 2.395a.676.676 0 01-.798.514l-2.42-.507a.67.67 0 01-.52-.79zM1.572 15.2l20.7-5.686a.312.312 0 01.376.21l.705 2.517L2.064 18.09l-.706-2.517a.306.306 0 01.213-.372zm24.685 7.396a.295.295 0 01-.03.229.296.296 0 01-.183.143l-20.7 5.687a.312.312 0 01-.376-.21l-2.105-7.51 21.289-5.847 2.105 7.508z" fill="#565EF5"/><path d="M8.688 23.11a.677.677 0 00-.83-.464l-2.417.665a.668.668 0 00-.469.82l.671 2.393c.1.354.472.563.83.464l2.417-.664a.668.668 0 00.47-.82l-.672-2.393z" fill="#565EF5"/></svg>
